X:1
T:Title
%%score 1 { ( 2 5 6 ) | ( 3 4 7 ) }
L:1/8
M:4/4
K:G
V:1 treble nm="Akkordion"
V:2 treble nm="Grand Piano"
V:5 treble 
V:6 treble 
V:3 treble 
V:4 treble 
V:7 treble 
V:1
 z8[Q:1/4=80] | z8 | z8 | z8 |[M:3/4] z6 |[M:1/4] Bc |[M:4/4] dBe^c dB G>G | ccGA B2 Bc | %8
 dBe^c dB G>B | AEB_B A3 =B/c/ | dBe^c dD G>G | ccGA B2 B>c | dBcB A E2 A/B/ |[M:7/8] AEB>_B A3 | %14
[M:4/2][Q:1/4=150] z16 | z16 | z16 | z16 | z16 | z16 | z16 | z16 | z16 | z16 | z16 | z16 | z16 | %27
 z16 | z16 | z16 |[M:4/4][Q:1/4=80] z8 | z8 | z8 |[M:3/4] z6 |[M:1/4] z2 | Bc | %36
[M:4/4] dBe^c dB G>G | ccGA B2 Bc | dBe^c dB G>B | AEB_B A3 =B/c/ | dBe^c dD G>G | ccGA B2 B>c | %42
 dBcB A E2 A/B/ |[M:7/8] AEB>_B A3 |[M:6/4][Q:1/4=96] z12 | z12 | z12 | z12 | z12 | z12 | z12 | %51
 z12 | z12 | z12 |[M:4/4][Q:1/4=80] z8 | z8 | z8 |[M:3/4] z6 |[M:1/4] z2 | Bc | %60
[M:4/4] dBe^c dB G>G | ccGA B2 Bc | dBe^c dB G>B | AEB_B A3 =B/c/ | dBe^c dD G>G | ccGA B2 B>c | %66
 dBcB A E2 A/B/ |[M:7/8] AEB>_B A3 |[M:4/2][Q:1/4=150] z16 | z16 | z16 | z16 | z16 | z16 | z16 | %75
 z16 |] %76
V:2
 z4 z2 Bc | [Bd][GB][_Be][B^c] [=Bd]B .[B,DG]>G | [Ec][Ec][EG][^DA] [=DB]2 Bc | dBcB [^CA]E F>D | %4
[M:3/4] G-[DG-] [^CG-][=CG-] [B,G]2 |[M:1/4] Bc |[M:4/4] [Bd][GB][_Be][B^c] [=Bd]B z z/ G/ | %7
 [Ec][Ec]G[^DA] [=DB]2 Bc | dBe^c [Bd][GB] .[DG]2 | z4 A4 | [Bd][GB][_Be][B^c] [=Bd]B z z/ G/ | %11
 [Ec][Ec][EG][EA] [^DB]2 B>c | dBcB [^CA] [CE]2 [CA]/B/ |[M:7/8] z z z2 A3 | %14
[M:4/2] B8 [FB]4 [FA]4 | G8 [Gd]8 | [Ge]4 [Fd]4 [Gd]4 [Ac]4 | B16 | B8 z8 | [Ge]8 d8 | %20
 c4 A4 B4 [G^c]4 | [Fd]16 | [GB]8 z8 | z8 d8 | [EGd]4 [Gc]4 [E^Gc]4 [DGB]4 | [CA]16 | %26
 [DFA]8 [DGB]4 [DFc]4 | [DGB]4 [CFA]4 [B,G]4 [EAc]4 | [GB]8 z8 | [B,G]16 | %30
[M:4/4] Bc[Bd][GB] [_Be][B^c][=Bd]B | .[B,DG]>G [Ec][Ec] [EG][^DA] [=DB]2 | BcdB cB[^CA]E | %33
[M:3/4] z2 G4- |[M:1/4] G2 | Bc |[M:4/4] [Bd][GB][_Be][B^c] [=Bd]B z z/ G/ | %37
 [Ec][Ec]G[^DA] [=DB]2 Bc | dBe^c [Bd][GB] .[DG]2 | z4 A4 | [Bd][GB][_Be][B^c] [=Bd]B z z/ G/ | %41
 [Ec][Ec][EG][EA] [^DB]2 B>c | dBcB [^CA] [CE]2 [CA]/B/ |[M:7/8] z z z2 A3 |[M:6/4] B4 B2 B4 G2 | %45
 [FA]4 [FA]2 .[FA]6 | [DGB]4 [DGB]2 [DBd]4 [EAc]2 | [DGB]6 [CFA]6 | [B,G]12 | %49
 [DGB]4 [DGB]2 [DGB]4 [B,G]2 | [DFA]4 [DFA]2 .[DFA]6 | [DGB]4 [DGB]2 [DBd]4 [EAc]2 | %52
 [DGB]6 [CFA]6 | [B,G]12 |[M:4/4] Bc[Bd][GB] [_Be][B^c][=Bd]B | %55
 .[B,DG]>G [Ec][Ec] [EG][^DA] [=DB]2 | BcdB cB[^CA]E |[M:3/4] z2 G4- |[M:1/4] G2 | Bc | %60
[M:4/4] [Bd][GB][_Be][B^c] [=Bd]B z z/ G/ | [Ec][Ec]G[^DA] [=DB]2 Bc | dBe^c [Bd][GB] .[DG]2 | %63
 z4 A4 | [Bd][GB][_Be][B^c] [=Bd]B z z/ G/ | [Ec][Ec][EG][EA] [^DB]2 B>c | %66
 dBcB [^CA] [CE]2 [CA]/B/ |[M:7/8] z z z2 A3 |[M:4/2] B4 A3 G D4 G4 | B6 c2 B8 | d4 e3 d B4 [DG]4 | %71
 [DFA]16 | B4 A3 G D4 G4 | B6 c2 [=Fd]8 | .[Ed]4 [DEB]2 [CEA]2 [B,DG]4 [A,DF]4 | [B,DG]16 |] %76
V:3
 z4 z2 GA | G,,D^CE G,,D, .G,>=F | C,G,CG, G,,D,[K:treble][G,D][A,F] | %3
 [B,D][DG][EG][DG][K:bass] z ^C =C>C |[M:3/4] z =F, E,^D, =D,2 |[M:1/4][K:treble] GA | %6
[M:4/4][K:bass] G,,D^CE G,,D, .[G,B,]>=F | C,G,CG, G,,D,[K:treble][G,D][A,F] | %8
 [B,G][DG][^C_B][EB][K:bass] G,,G, .B,>[K:treble]=B | %9
 A,,[E,^C][A,C][E,C] [F,=C][G,C] [F,C][K:treble]G/A/ | G,,D^CE G,,D, .[G,B,]>=F | %11
 C,G,CC, B,,2[K:treble] G>A | [G,B,D][DG][EG][DG][K:bass] A,,E, .A,>^C | %13
[M:7/8] A,,E,A, z/ ^C/[F,=C] [G,C][F,C] |[M:4/2] [G,DG]8 [D,D]4 [D,C]4 | [E,B,]8 [B,,G,]8 | %16
 [C,G,]4 [D,D]4 [E,D]4 [F,D]4 | [G,DG]16 | [DG]8[K:bass] [E,C]4 [D,B,]4 | %19
 [C,C]8[K:treble] [G,B,G]8 | [A,EG]4[K:bass] [F,D]4 [G,DG]4 [E,A,]4 | [D,A,]16 | G,8 z8 | %23
 E,8 z4 F4 | z4 E4 z8 | A,16 | C8 B,4 A,4 | G,4 D,4 E,4 C,4 | D,8 z4[K:treble] C4 | G,16 | %30
[M:4/4] GA[K:bass]G,,D ^CEG,,D, | .G,>=F C,G, CG,G,,D, | %32
 [G,D][A,F][B,D][DG] [EG][DG][K:bass] z ^C |[M:3/4] C>C z =F, E,^D, |[M:1/4] D,2 | GA | %36
[M:4/4][K:bass] G,,D^CE G,,D, .[G,B,]>=F | C,G,CG, G,,D,[K:treble][G,D][A,F] | %38
 [B,G][DG][^C_B][EB][K:bass] G,,G, .B,>[K:treble]=B | %39
 A,,[E,^C][A,C][E,C] [F,=C][G,C] [F,C][K:treble]G/A/ | G,,D^CE G,,D, .[G,B,]>=F | %41
 C,G,CC, B,,2[K:treble] G>A | [G,B,D][DG][EG][DG][K:bass] A,,E, .A,>^C | %43
[M:7/8] A,,E,A, z/ ^C/[F,=C] [G,C][F,C] | %44
[M:6/4][K:treble] [G,DG]4 [G,DG]2 [G,DG]4[K:bass] [G,B,]2 | [D,D]4 [D,D]2 .[D,D]6 | %46
 G,4 G,2 G,4 C,2 | D,6 D,6 | G,12 | G,4 G,2 G,4 G,2 | D,4 D,2 .D,6 | G,4 G,2 G,4 C,2 | D,6 D,6 | %53
 G,12 |[M:4/4][K:treble] GA[K:bass]G,,D ^CEG,,D, | .G,>=F C,G, CG,G,,D, | %56
 [G,D][A,F][B,D][DG] [EG][DG][K:bass] z ^C |[M:3/4] C>C z =F, E,^D, |[M:1/4] D,2 | GA | %60
[M:4/4][K:bass] G,,D^CE G,,D, .[G,B,]>=F | C,G,CG, G,,D,[K:treble][G,D][A,F] | %62
 [B,G][DG][^C_B][EB][K:bass] G,,G, .B,>[K:treble]=B | %63
 A,,[E,^C][A,C][E,C] [F,=C][G,C] [F,C][K:treble]G/A/ | G,,D^CE G,,D, .[G,B,]>=F | %65
 C,G,CC, B,,2[K:treble] G>A | [G,B,D][DG][EG][DG][K:bass] A,,E, .A,>^C | %67
[M:7/8] A,,E,A, z/ ^C/[F,=C] [G,C][F,C] | %68
[M:4/2] [G,D]4 [G,CD]3 [G,B,D] [G,B,]4[K:treble] [G,B,D]4 | G6- [EG]2 [G,DG]8 | %70
 [G,B,G]4 [G,CG]3 [G,B,G] [G,DG]4[K:bass] B,,4 | D,16 | %72
 [G,D]4 [G,CD]3 [G,B,D] [G,B,]4[K:treble] [G,B,D]4 | [G,DG]8[K:bass] [B,,G,]8 | %74
 z2[K:treble] c2[K:bass] C,2 C,2 D,4 D,4 | G,16 |] %76
V:4
 x8 | z4 z2 z D, | x6[K:treble] x2 | z4[K:bass] [A,,E,A,]2 [D,A,]2 |[M:3/4] G,,6 | %5
[M:1/4][K:treble] x2 |[M:4/4][K:bass] x8 | x6[K:treble] x2 | z4[K:bass] z2 z G,[K:treble] | %9
 z4 D,4[K:treble] | x8 | x6[K:treble] x2 | z4[K:bass] z2 z E, |[M:7/8] z z2 E, D,3 |[M:4/2] x16 | %15
 x16 | x16 | x16 | G,4 z4[K:bass] z8 | x8[K:treble] x8 | x4[K:bass] x12 | x16 | z4 C4 D,4 D,4 | %23
 z8 B,,8 | z4 z2 D,2 E,4 E,4 | x16 | x16 | x16 | z8 D,8[K:treble] | x16 |[M:4/4] x2[K:bass] x6 | %31
 z D, z2 z4 | z4 z2[K:bass] [A,,E,A,]2 |[M:3/4] [D,A,]2 G,,4- |[M:1/4] G,,2 | x2 | %36
[M:4/4][K:bass] x8 | x6[K:treble] x2 | z4[K:bass] z2 z G,[K:treble] | z4 D,4[K:treble] | x8 | %41
 x6[K:treble] x2 | z4[K:bass] z2 z E, |[M:7/8] z z2 E, D,3 |[M:6/4][K:treble] x10[K:bass] x2 | %45
 x12 | x12 | x12 | x12 | x12 | x12 | x12 | x12 | x12 |[M:4/4][K:treble] x2[K:bass] x6 | %55
 z D, z2 z4 | z4 z2[K:bass] [A,,E,A,]2 |[M:3/4] [D,A,]2 G,,4- |[M:1/4] G,,2 | x2 | %60
[M:4/4][K:bass] x8 | x6[K:treble] x2 | z4[K:bass] z2 z G,[K:treble] | z4 D,4[K:treble] | x8 | %65
 x6[K:treble] x2 | z4[K:bass] z2 z E, |[M:7/8] z z2 E, D,3 |[M:4/2] x12[K:treble] x4 | D8 z8 | %70
 x12[K:bass] x4 | x16 | x12[K:treble] x4 | x8[K:bass] x8 | [C,G,]4[K:treble][K:bass] z4 z8 | x16 |] %76
V:5
 x8 | x8 | x8 | x8 |[M:3/4] .[G,B,]2 z2 z2 |[M:1/4] x2 |[M:4/4] z4 z2 G2 | x8 | x8 | %9
 [^CA]EB_B z E D=B/c/ | z4 z2 G2 | x8 | x8 |[M:7/8] [^CA][CE][CB]>_B z ED |[M:4/2] x16 | x16 | %16
 x16 | x16 | z4 F,4 [Gc]4 [Gd]4 | x16 | x16 | x16 | B,4 z4 [DFB]4 [CFA]4 | [B,G]8 G4 z4 | x16 | %25
 x16 | x16 | x16 | D8- [DF-A-]4 [FA]4 | x16 |[M:4/4] x8 | x8 | x8 |[M:3/4] F>D [G,B,]D ^C=C | %34
[M:1/4] B,2 | x2 |[M:4/4] z4 z2 G2 | x8 | x8 | [^CA]EB_B z E D=B/c/ | z4 z2 G2 | x8 | x8 | %43
[M:7/8] [^CA][CE][CB]>_B z ED |[M:6/4] x12 | x12 | x12 | x12 | x12 | x12 | x12 | x12 | x12 | x12 | %54
[M:4/4] x8 | x8 | x8 |[M:3/4] F>D [G,B,]D ^C=C |[M:1/4] B,2 | x2 |[M:4/4] z4 z2 G2 | x8 | x8 | %63
 [^CA]EB_B z E D=B/c/ | z4 z2 G2 | x8 | x8 |[M:7/8] [^CA][CE][CB]>_B z ED |[M:4/2] x16 | x16 | %70
 x16 | x16 | x16 | x16 | x16 | x16 |] %76
V:6
 x8 | x8 | x8 | x8 |[M:3/4] x6 |[M:1/4] x2 |[M:4/4] z4 z2 z D, | x8 | x8 | x8 | z4 z2 z D, | x8 | %12
 x8 |[M:7/8] x7 |[M:4/2] x16 | x16 | x16 | x16 | x16 | x16 | x16 | x16 | x16 | x16 | x16 | x16 | %26
 x16 | x16 | x16 | x16 |[M:4/4] x8 | x8 | x8 |[M:3/4] x6 |[M:1/4] x2 | x2 |[M:4/4] z4 z2 z D, | %37
 x8 | x8 | x8 | z4 z2 z D, | x8 | x8 |[M:7/8] x7 |[M:6/4] x12 | x12 | x12 | x12 | x12 | x12 | x12 | %51
 x12 | x12 | x12 |[M:4/4] x8 | x8 | x8 |[M:3/4] x6 |[M:1/4] x2 | x2 |[M:4/4] z4 z2 z D, | x8 | x8 | %63
 x8 | z4 z2 z D, | x8 | x8 |[M:7/8] x7 |[M:4/2] x16 | x16 | x16 | x16 | x16 | x16 | x16 | x16 |] %76
V:7
 x8 | x8 | x6[K:treble] x2 | x4[K:bass] x4 |[M:3/4] x6 |[M:1/4][K:treble] x2 |[M:4/4][K:bass] x8 | %7
 x6[K:treble] x2 | x4[K:bass] x7/2[K:treble] x/ | x7[K:treble] x | x8 | x6[K:treble] x2 | %12
 x4[K:bass] x4 |[M:7/8] x7 |[M:4/2] x16 | x16 | x16 | x16 | x8[K:bass] x8 | x8[K:treble] x8 | %20
 x4[K:bass] x12 | x16 | x16 | x16 | C,8 z8 | x16 | x16 | x16 | x12[K:treble] x4 | x16 | %30
[M:4/4] x2[K:bass] x6 | x8 | x6[K:bass] x2 |[M:3/4] x6 |[M:1/4] x2 | x2 |[M:4/4][K:bass] x8 | %37
 x6[K:treble] x2 | x4[K:bass] x7/2[K:treble] x/ | x7[K:treble] x | x8 | x6[K:treble] x2 | %42
 x4[K:bass] x4 |[M:7/8] x7 |[M:6/4][K:treble] x10[K:bass] x2 | x12 | x12 | x12 | x12 | x12 | x12 | %51
 x12 | x12 | x12 |[M:4/4][K:treble] x2[K:bass] x6 | x8 | x6[K:bass] x2 |[M:3/4] x6 |[M:1/4] x2 | %59
 x2 |[M:4/4][K:bass] x8 | x6[K:treble] x2 | x4[K:bass] x7/2[K:treble] x/ | x7[K:treble] x | x8 | %65
 x6[K:treble] x2 | x4[K:bass] x4 |[M:7/8] x7 |[M:4/2] x12[K:treble] x4 | x16 | x12[K:bass] x4 | %71
 x16 | x12[K:treble] x4 | x8[K:bass] x8 | x2[K:treble] x2[K:bass] x12 | x16 |] %76

